icons/TikTok.svg

<svg width="16" height="16" viewBox="0 0 16 16" fill="currentColor" xmlns="http://www.w3.org/2000/svg">
<path d="M6.36036 15.0264C3.83016 15.0264 1.76605 12.9881 1.76605 10.4773C1.76605 9.40044 2.17111 8.34558 2.87579 7.59289C2.95347 7.51048 3.08664 7.50498 3.16987 7.5819C3.2531 7.65882 3.25865 7.79067 3.18097 7.87308C2.54842 8.55435 2.1822 9.50482 2.1822 10.4828C2.1822 12.7628 4.05766 14.6198 6.36036 14.6198C8.78513 14.6198 10.4775 12.9221 10.4775 10.4828L10.533 5.48316C10.533 5.40625 10.5774 5.33482 10.6495 5.30186C10.7216 5.26889 10.8048 5.27439 10.8659 5.32384C11.7703 5.99411 12.8079 6.38419 13.8067 6.43364V4.53818C12.0533 4.43929 10.6439 3.09324 10.5385 1.41206H8.8961L8.84062 10.4938C8.84062 12.2244 7.61436 12.8397 6.46578 12.8397C5.1341 12.8397 4.09095 11.8068 4.09095 10.4883C4.09095 9.26309 5.04532 8.25218 6.25493 8.14779V6.35123C5.71671 6.3787 5.15075 6.52154 4.60698 6.76878C4.50155 6.81822 4.37948 6.76878 4.32954 6.66439C4.2796 6.56 4.32954 6.43913 4.43497 6.38969C5.10081 6.08751 5.79994 5.93368 6.46578 5.93368C6.58231 5.93368 6.67663 6.02708 6.67663 6.14245V8.34008C6.67663 8.45546 6.58231 8.54886 6.46578 8.54886C5.38934 8.54886 4.5071 9.41692 4.5071 10.4883C4.5071 11.5761 5.36715 12.4277 6.46578 12.4277C6.92632 12.4277 8.42447 12.2903 8.42447 10.4883L8.47995 1.20328C8.47995 1.0879 8.57428 1 8.6908 1H10.7438C10.8603 1 10.9547 1.0934 10.9547 1.20877C10.9547 2.82403 12.3307 4.13712 14.0231 4.13712C14.1396 4.13712 14.2339 4.23051 14.2339 4.34589V6.6534C14.2339 6.76878 14.1396 6.86218 14.0231 6.86218C12.991 6.86218 11.9146 6.52154 10.9547 5.89522L10.9047 10.5047C10.8936 13.1529 9.02927 15.0264 6.36036 15.0264Z" fill="#3D3D3D"/>
</svg>

<svg xmlns="http://www.w3.org/2000/svg" width="16" height="16" fill="currentColor" class="si si-TikTok" viewBox="0 0 16 16">
  <path d="M6.36 15.026c-2.53 0-4.594-2.038-4.594-4.549 0-1.077.405-2.131 1.11-2.884a.21.21 0 0 1 .294-.011.206.206 0 0 1 .011.291c-.633.681-.999 1.632-.999 2.61 0 2.28 1.876 4.137 4.178 4.137 2.425 0 4.117-1.698 4.117-4.137l.056-5a.2.2 0 0 1 .117-.181.2.2 0 0 1 .216.022c.904.67 1.942 1.06 2.94 1.11V4.538c-1.753-.099-3.162-1.445-3.267-3.126H8.896l-.055 9.082c0 1.73-1.227 2.346-2.375 2.346-1.332 0-2.375-1.033-2.375-2.352 0-1.225.954-2.236 2.164-2.34V6.35a4.6 4.6 0 0 0-1.648.418.21.21 0 0 1-.277-.105.206.206 0 0 1 .105-.274 4.95 4.95 0 0 1 2.03-.456.21.21 0 0 1 .212.208V8.34a.21.21 0 0 1-.211.209 1.95 1.95 0 0 0-1.959 1.94c0 1.087.86 1.939 1.959 1.939.46 0 1.958-.138 1.958-1.94l.056-9.285c0-.115.094-.203.21-.203h2.054a.21.21 0 0 1 .21.209c0 1.615 1.377 2.928 3.07 2.928a.21.21 0 0 1 .21.209v2.307a.21.21 0 0 1-.21.21c-1.033 0-2.11-.341-3.07-.968l-.05 4.61c-.01 2.648-1.875 4.521-4.544 4.521"/>
</svg>
